X:1
T:Title
%%score 1 2 3 4
L:1/8
M:6/8
K:A
V:1 treble nm="Church Organ, Church Organ"
V:2 treble nm="French Horn, French Horn"
V:3 bass nm="Trombone, Trombone"
V:4 bass nm="Tuba, Tuba"
V:1
 E2 E E^DE | F2 E A3 | B2 B BAB | c2 c B3 | E2 E E^DE | F2 F A3 | B2 c dcB | A2 G A3 | G2 G GFG | %9
w: By~Mason~J.~Matthews * * * *|||||||||
 B2 A F3 | F2 F FGA | c2 B G2 E | A2 A AEA | c3 c2 A | c2 c cAc | e3 .e3 | e2 B Bcd | c2 B A2 F | %18
w: |||||||||
 E2 c c2 B | A3 .A3 |] %20
w: ||
V:2
 C2 C C=C^C | D2 C C3 | E2 E E2 E | E2 E E2 D | C2 C C=C^C | D2 C C3 | E2 E E2 F | E2 D C3 | %8
w: Je sus~ is~ * our~|Morn ing~ Star,~|Bright ly~ gleam ing~|from~ a far;~ *|He~ is~ sent~ * to~|guide~ the~ way~|From~ the~ dark ness~|in to~ day,~|
 E2 E E2 E | ^D2 D D3 | ^D2 D DEF | E2 D D2 D | C2 C C2 C | E3 E2 E | A2 A A2 A | A3 .A3 | %16
w: And~ His~ dy ing~|love~ a lone~|Can~ for~ all~ * our~|sins~ a tone,~ The~|bright~ and~ Morn ing~|Star!~ * The~|bright~ and~ Morn ing~|Star!~ *|
 G2 G GAB | A2 E E2 D | C2 E E2 D | C3 .C3 |] %20
w: Je sus~ is~ * our~|Morn ing~ Star,~ Our~|bright~ and~ Morn ing~|Star!~ *|
V:3
 A,2 A, A,2 A, | A,2 A, E,3 | G,2 G, G,F,G, | A,2 A, G,3 | A,2 A, A,2 A, | A,2 A, E,3 | %6
 G,2 A, G,A,D | C2 B, A,3 | B,2 B, B,^A,B, | B,2 F, B,3 | B,2 B, B,2 B, | A,2 G, B,2 G, | %12
 A,2 A, A,2 A, | A,3 A,2[K:treble] C | E2 E ECE | C3 .C3 | B,2 E E2 E | E2 D C2[K:bass] A, | %18
 A,2 A, G,2 G, | A,3 .A,3 |] %20
V:4
 A,,2 A,, A,,2 A,, | A,,2 A,, A,,3 | E,2 E, E,2 E, | A,2 C, E,3 | A,,2 A,, A,,2 A,, | %5
 A,,2 A,, A,,3 | E,2 C, B,,C,D, | E,2 E, A,,3 | E,2 E, E,2 E, | B,,2 B,, B,,3 | B,,2 B,, B,,2 B,, | %11
 E,2 E, E,2 E, | A,,2 A,, A,,2 A,, | A,,3 A,,2 A, | A,2 A, A,2 A, | A,3 .A,3 | E,2 E, E,2 E, | %17
 A,2 A, A,2 D, | E,2 E, E,2 E, | A,,3 .A,,3 |] %20

